res/skins/Tango/buttons/btn_head.svg

<svg xmlns="http://www.w3.org/2000/svg" width="48" height="48"><g fill="#d2d2d2"><path d="M7.8030445 28.3292l5.8983505-1.0997c.933625-.1741 1.825384.4374 1.999461 1.371l2.042415 10.9541c.174077.9336-.4374 1.8253-1.371025 1.9994l-5.898349 1.0997c-.9336244.1741-1.825383-.4374-1.9994607-1.371L6.4320196 30.3286c-.1740766-.9336.4374005-1.8253 1.3710249-1.9994z"/><path style="text-indent:0;text-align:start;line-height:normal;text-transform:none;block-progression:tb;marker:none;-inkscape-font-specification:Sans" d="M24 6.6161C14.42047 6.6161 6.6160714 14.4203 6.6160714 24c0 1.0953.099938 2.1491.2946429 3.1875.8290445 4.5144 1.6872351 9.0229 2.5714286 13.5268l3.7767861-.7232c-.815437-4.6088-1.91755-9.5084-2.571429-13.7411-.126402-.7369-.214286-1.4706-.214286-2.25 0-7.4947 6.032153-13.5268 13.526786-13.5268 7.494633 0 13.526786 6.0321 13.526786 13.5268 0 .7794-.08788 1.5131-.214286 2.25-.653879 4.2327-1.755992 9.1323-2.571429 13.7411l3.776786.7232c.884194-4.5039 1.742384-9.0124 2.571429-13.5268.194704-1.0384.294643-2.0922.294643-3.1875 0-9.5797-7.804399-17.3839-17.383929-17.3839z" font-weight="400" color="#000" overflow="visible" font-family="Sans"/><path d="M40.196955 28.3293l-5.89835-1.0998c-.933625-.174-1.825384.4374-1.999461 1.371l-2.042415 10.9542c-.174077.9336.4374 1.8253 1.371025 1.9994l5.898349 1.0997c.933624.1739 1.825383-.4374 1.99946-1.3711l2.042417-10.9542c.174077-.9334-.437401-1.8253-1.371025-1.9992z"/></g></svg>

<?xml version="1.0" encoding="UTF-8" standalone="no"?>
<!-- Created with Inkscape (http://www.inkscape.org/) -->

<svg
   xmlns:dc="http://purl.org/dc/elements/1.1/"
   xmlns:cc="http://creativecommons.org/ns#"
   xmlns:rdf="http://www.w3.org/1999/02/22-rdf-syntax-ns#"
   xmlns:svg="http://www.w3.org/2000/svg"
   xmlns="http://www.w3.org/2000/svg"
   version="1.1"
   width="28"
   height="28"
   id="svg3055">
  <metadata
     id="metadata3069">
    <rdf:RDF>
      <cc:Work
         rdf:about="">
        <dc:format>image/svg+xml</dc:format>
        <dc:type
           rdf:resource="http://purl.org/dc/dcmitype/StillImage" />
        <dc:title></dc:title>
      </cc:Work>
    </rdf:RDF>
  </metadata>
  <defs
     id="defs3067" />
  <g
     transform="matrix(0.56080235,0,0,0.56080235,0.54074369,0.17637717)"
     id="g3057"
     style="fill:#d2d2d2">
    <path
       d="m 7.8030445,28.3292 5.8983505,-1.0997 c 0.933625,-0.1741 1.825384,0.4374 1.999461,1.371 l 2.042415,10.9541 c 0.174077,0.9336 -0.4374,1.8253 -1.371025,1.9994 l -5.898349,1.0997 C 9.5402726,42.8278 8.648514,42.2163 8.4744363,41.2827 L 6.4320196,30.3286 C 6.257943,29.395 6.8694201,28.5033 7.8030445,28.3292 z"
       id="path3059" />
    <path
       d="M 24,6.6161 C 14.42047,6.6161 6.6160714,14.4203 6.6160714,24 c 0,1.0953 0.099938,2.1491 0.2946429,3.1875 0.8290445,4.5144 1.6872351,9.0229 2.5714286,13.5268 L 13.258929,39.9911 C 12.443492,35.3823 11.341379,30.4827 10.6875,26.25 10.561098,25.5131 10.473214,24.7794 10.473214,24 c 0,-7.4947 6.032153,-13.5268 13.526786,-13.5268 7.494633,0 13.526786,6.0321 13.526786,13.5268 0,0.7794 -0.08788,1.5131 -0.214286,2.25 -0.653879,4.2327 -1.755992,9.1323 -2.571429,13.7411 l 3.776786,0.7232 C 39.402051,36.2104 40.260241,31.7019 41.089286,27.1875 41.28399,26.1491 41.383929,25.0953 41.383929,24 41.383929,14.4203 33.57953,6.6161 24,6.6161 z"
       id="path3061"
       style="font-weight:400;text-indent:0;text-align:start;line-height:normal;text-transform:none;block-progression:tb;color:#000000;marker:none;overflow:visible;font-family:Sans;-inkscape-font-specification:Sans" />
    <path
       d="m 40.196955,28.3293 -5.89835,-1.0998 c -0.933625,-0.174 -1.825384,0.4374 -1.999461,1.371 l -2.042415,10.9542 c -0.174077,0.9336 0.4374,1.8253 1.371025,1.9994 l 5.898349,1.0997 c 0.933624,0.1739 1.825383,-0.4374 1.99946,-1.3711 L 41.56798,30.3285 c 0.174077,-0.9334 -0.437401,-1.8253 -1.371025,-1.9992 z"
       id="path3063" />
  </g>
</svg>
